X:181
T:Richard Dwyers
M:4/4
L:1/8
R:Reel
K:ADor
"Ami"A2 EA cdeg|"G"dcBG "Ami"AE"G"GF|"Ami"EAcA "G"Bdgf|"Ami"eaag "Emi"a2
ag|
eg"G"ed "Ami"cA A2|"G"Bgdc BdcB|"Ami"AEcE "Dmi"dEcd|"Emi"ecAG "Ami"EA A2
:|
"Ami"a2 ea baea|">G"g2 gg ba ">"g2|"Ami"aged cded|cABG "Emi"EA A2|
"Ami"a2 .ea eaea|"G"g2 ge dBGB|"Ami"A2 Bd eaaf|"G"gedg "Emi"e4||
"Ami"a2 ea baea|"G"g2 gg bage|"Ami"aged cdcd|ecAG "Emi"EA A2|
"Ami"a2 .ea eaea|"G"g2 ge dBGB|"Ami"A2 Bdeaaf|"Emi"gedg "Ami"eAAG||
